X:1
T:Ávila, 76.76 D
T:Ávila, 76.76 D
T:William Fiske Sherwin, 1881
T:Public Domain Courtesy of the Cyber Hymnal™
C:William Fiske Sherwin, 1881
Z:Public Domain
Z:Courtesy of the Cyber Hymnal™
%%score ( 1 2 ) 3
L:1/8
Q:1/4=113
M:4/4
K:Eb
V:1 treble 
V:2 treble 
V:3 bass 
V:1
 [EB]2 | [Ec]2 [EB]2 [EA]2 [EG]2 | [CF]4 C2 [=A,E]2 | [B,D]2 [B,E]2 [EG]2 [DF]2 | [EB]4 z2 [EB]2 | %5
 [Ec]2 [EB]2 [EA]2 [EG]2 | [CF]4 C2 [CE]2 | [B,D]2 [B,E]2 [EG]3 [DF] | E4 z2 [EG]2 | %9
 [Ge]2 [Fd]2 [Ec]2 G2 | [GB]4 [FA]2 [FA]2 | [Fd]2 [Ac]2 [GB]2 [FA]2 | [EG]4 z2 [EB]2 | %13
 [=Ec]2 [GB]2 [FA]2 [EG]2 | [GB]4 [FA]2 [CF]2 | [B,E]2 [EG]2 [DG]3 [DF] | E4 z2 |] %17
V:2
 x2 | x8 | x4 C2 x2 | x8 | x8 | x8 | x4 C2 x2 | x8 | E4 x4 | x6 G2 | x8 | x8 | x8 | x8 | x8 | x8 | %16
 E4 x2 |] %17
V:3
 [E,G,]2 | [E,A,]2 [E,G,]2 [E,C]2 [E,B,]2 | [A,,A,]4 [A,,A,]2 [C,F,]2 | %3
 [B,,F,]2 [B,,G,]2 [B,,B,]2 [B,,A,B,]2 | [G,B,]4 z2 [E,G,]2 | [E,A,]2 [E,G,]2 [E,C]2 [E,B,]2 | %6
 [A,,A,]4 [A,,A,]2 [=A,,F,]2 | [B,,F,]2 [B,,G,]2 [B,,B,]3 [B,,A,] | [E,G,]4 z2 [E,B,]2 | %9
 [C,C]2 [D,=B,]2 [E,C]2 [=E,C]2 | [F,C]4 [F,C]2 [F,C]2 | [B,,B,]2 [B,,B,]2 [C,B,]2 [D,B,]2 | %12
 [E,B,]4 z2 [E,G,]2 | [C,G,]2 [C,C]2 [C,C]2 [C,C]2 | [F,C]4 [F,C]2 [A,,A,]2 | %15
 [B,,G,]2 [B,,B,]2 [B,,B,]3 [B,,A,] | [E,G,]4 z2 |] %17

